src/svg/zoom-out.svg

<svg xmlns="http://www.w3.org/2000/svg" width="1000" height="1000" viewBox="0 0 1000 1000"><path fill-rule="evenodd" clip-rule="evenodd" fill="#070505" d="M917.268 817.715c-13.886 158.095-116.141 76.55-116.141 76.55l-193.556-152.637c-51.212 28.799-109.278 46.565-172.133 46.565-195.768 0-354.371-158.755-354.371-354.371 0-195.777 158.603-354.381 354.371-354.381 195.787 0 354.38 158.604 354.38 354.381 0 78.128-26.016 149.862-68.871 208.441l196.321 175.452zm-481.83-634.298c-138.219 0-250.409 112.021-250.409 250.405 0 138.277 112.19 250.413 250.409 250.413 138.233 0 250.414-112.136 250.414-250.413 0-138.384-112.181-250.405-250.414-250.405zm63.881 418.453h-104.653v-104.52h-104.475v-104.626h104.475v-104.484h104.654v104.483h104.649v104.627h-104.65v104.52z"/></svg>

<?xml version="1.0" encoding="utf-8"?>
<!-- Generator: Adobe Illustrator 16.0.0, SVG Export Plug-In . SVG Version: 6.00 Build 0)  -->
<!DOCTYPE svg PUBLIC "-//W3C//DTD SVG 1.1//EN" "http://www.w3.org/Graphics/SVG/1.1/DTD/svg11.dtd">
<svg version="1.1" id="Layer_1" xmlns="http://www.w3.org/2000/svg" xmlns:xlink="http://www.w3.org/1999/xlink" x="0px" y="0px"
	 width="1000px" height="1000px" viewBox="0 0 1000 1000" enable-background="new 0 0 1000 1000" xml:space="preserve">
<path fill-rule="evenodd" clip-rule="evenodd" fill="#070505" d="M917.268,817.715c-13.886,158.095-116.141,76.55-116.141,76.55
	L607.571,741.628c-51.212,28.799-109.278,46.565-172.133,46.565c-195.768,0-354.371-158.755-354.371-354.371
	c0-195.777,158.603-354.381,354.371-354.381c195.787,0,354.38,158.604,354.38,354.381c0,78.128-26.016,149.862-68.871,208.441
	L917.268,817.715L917.268,817.715z M435.438,183.417c-138.219,0-250.409,112.021-250.409,250.405
	c0,138.277,112.19,250.413,250.409,250.413c138.233,0,250.414-112.136,250.414-250.413
	C685.852,295.438,573.671,183.417,435.438,183.417L435.438,183.417z M499.319,601.87H394.666v-104.52H290.191V392.724h104.475
	V288.24h104.654v104.483h104.649v104.627H499.319V601.87L499.319,601.87z"/>
</svg>
